X:735
T:Mrs. Stewart of Garth
R:Reel
B:The Athole Collection
M:C|
L:1/8
K:D Minor
F|D2 DE FGAF|EcGc ECCE|D2 DE FGAF|Ddfe d2d:|
f|dafg afdf|egcg ecge|defg a2 gf|ecge d2 df|dafg afdf|egcg ecge|
fdec defd|cAGE D2D||

